icons/line/arrows-expand.svg

<svg width="24" height="24" viewBox="0 0 24 24" fill="none" xmlns="http://www.w3.org/2000/svg">
<path fill-rule="evenodd" clip-rule="evenodd" d="M9 4C9 4.55228 8.55229 5 8 5H6.41421L9.70711 8.29289C10.0976 8.68342 10.0976 9.31658 9.70711 9.70711C9.31658 10.0976 8.68342 10.0976 8.29289 9.70711L5 6.41421V8C5 8.55228 4.55229 9 4 9C3.44772 9 3 8.55228 3 8V4C3 3.44772 3.44772 3 4 3H8C8.55229 3 9 3.44772 9 4ZM17.5858 19L14.2929 15.7071C13.9024 15.3166 13.9024 14.6834 14.2929 14.2929C14.6834 13.9024 15.3166 13.9024 15.7071 14.2929L19 17.5858V16C19 15.4477 19.4477 15 20 15C20.5523 15 21 15.4477 21 16V20C21 20.5523 20.5523 21 20 21H16C15.4477 21 15 20.5523 15 20C15 19.4477 15.4477 19 16 19H17.5858ZM9 20C9 19.4477 8.55229 19 8 19H6.41421L9.70711 15.7071C10.0976 15.3166 10.0976 14.6834 9.70711 14.2929C9.31658 13.9024 8.68342 13.9024 8.29289 14.2929L5 17.5858V16C5 15.4477 4.55229 15 4 15C3.44772 15 3 15.4477 3 16V20C3 20.5523 3.44772 21 4 21H8C8.55229 21 9 20.5523 9 20ZM17.5858 5L14.2929 8.29289C13.9024 8.68342 13.9024 9.31658 14.2929 9.70711C14.6834 10.0976 15.3166 10.0976 15.7071 9.70711L19 6.41421V8C19 8.55229 19.4477 9 20 9C20.5523 9 21 8.55229 21 8V4C21 3.44772 20.5523 3 20 3H16C15.4477 3 15 3.44772 15 4C15 4.55229 15.4477 5 16 5H17.5858Z" fill="currentColor"/>
</svg>

<svg width="24" height="24" fill="none" xmlns="http://www.w3.org/2000/svg"><path fill-rule="evenodd" clip-rule="evenodd" d="M9 4a1 1 0 01-1 1H6.414l3.293 3.293a1 1 0 01-1.414 1.414L5 6.414V8a1 1 0 11-2 0V4a1 1 0 011-1h4a1 1 0 011 1zm8.586 15l-3.293-3.293a1 1 0 011.414-1.414L19 17.586V16a1 1 0 112 0v4a1 1 0 01-1 1h-4a1 1 0 110-2h1.586zM9 20a1 1 0 00-1-1H6.414l3.293-3.293a1 1 0 00-1.414-1.414L5 17.586V16a1 1 0 10-2 0v4a1 1 0 001 1h4a1 1 0 001-1zm8.586-15l-3.293 3.293a1 1 0 001.414 1.414L19 6.414V8a1 1 0 102 0V4a1 1 0 00-1-1h-4a1 1 0 100 2h1.586z" fill="currentColor"/></svg>
